modules/entypo/icons/map.svg

<svg height="1000px" width="1000px" xmlns="http://www.w3.org/2000/svg">
  <g>
    <path d="M984 250c10.667 6.667 16 16.667 16 30c0 0 0 584 0 584c0 13.333 -5.333 23.333 -16 30c-5.333 4 -10.667 6 -16 6c-5.333 0 -11.333 -2 -18 -6c0 0 -216 -136 -216 -136c0 0 -216 136 -216 136c-12 6.667 -23.333 6.667 -34 0c0 0 -218 -136 -218 -136c0 0 -216 136 -216 136c-10.667 6.667 -22 6.667 -34 0c-10.667 -6.667 -16 -16.667 -16 -30c0 0 0 -584 0 -584c0 -13.333 5.333 -23.333 16 -30c0 0 234 -146 234 -146c12 -6.667 23.333 -6.667 34 0c0 0 216 136 216 136c0 0 218 -136 218 -136c10.667 -6.667 21.333 -6.667 32 0c0 0 234 146 234 146m-750 450c0 0 0 -506 0 -506c0 0 -168 104 -168 104c0 0 0 506 0 506c0 0 168 -104 168 -104m234 104c0 0 0 -506 0 -506c0 0 -168 -104 -168 -104c0 0 0 506 0 506c0 0 168 104 168 104m234 -104c0 0 0 -506 0 -506c0 0 -170 104 -170 104c0 0 0 506 0 506c0 0 170 -104 170 -104m232 104c0 0 0 -506 0 -506c0 0 -168 -104 -168 -104c0 0 0 506 0 506c0 0 168 104 168 104" />
  </g>
</svg>

<svg height="1000" width="1000" xmlns="http://www.w3.org/2000/svg"><path d="M984 250c10.667 6.667 16 16.667 16 30v584c0 13.333-5.333 23.333-16 30-5.333 4-10.667 6-16 6s-11.333-2-18-6L734 758 518 894c-12 6.667-23.333 6.667-34 0L266 758 50 894c-10.667 6.667-22 6.667-34 0-10.667-6.667-16-16.667-16-30V280c0-13.333 5.333-23.333 16-30l234-146c12-6.667 23.333-6.667 34 0l216 136 218-136c10.667-6.667 21.333-6.667 32 0l234 146M234 700V194L66 298v506l168-104m234 104V298L300 194v506l168 104m234-104V194L532 298v506l170-104m232 104V298L766 194v506l168 104"/></svg>
